svg/u1f452.svg

<svg viewBox="0 0 128 128" xmlns="http://www.w3.org/2000/svg">
  <g>
    <g>
      <path d="M98.06,61.43c2.49-13.93-2.12-26.75-15.73-34.03c-13.5-7.22-26.66-3.96-36.82,5.64 c-7.92-3.91-14.59-6.42-20.82-6.73c-6.36-0.31-9.76-0.04-14.16,4.22c-8.37,8.1-3.55,37.76,29.94,57.79 c34.5,20.64,66.92,14.36,76.21,0C122.79,78.88,113.79,70.7,98.06,61.43z" fill="#FADA80"/>
      <path d="M98.06,61.43c2.47-13.78-2.04-26.48-15.33-33.8c1.05,1.13,2.26,2.83,1.26,3.63 c-1.24,0.99-1.98,0.47-4.03,0.4c-0.73-0.02-0.9,0.58-0.46,1.58c0.42,0.93,1.74,2.36,4.92,3.94c1.34,0.66,1.24,1.85-0.28,2.19 c-2.36,0.52-3.64,0.49-5.1,0.38c-1.5-0.1-1.45,1.32-0.64,2.14c0.75,0.78,2.22,2.41,5.75,3.34c1.02,0.27,0.74,1.64-1.36,2.03 c-1.94,0.36-4.21,0.17-5.23,0.18c-1.02,0.02-0.87,0.84-0.5,1.4c1.46,2.17,3.08,2.69,5.63,3.78c0.73,0.31,0.52,1.37-1.38,2.03 c-1.48,0.52-3.12,0.74-5.28,0.53c-3.44-0.33-6.43,1.86-4.91,5.52l-4.47,9.5c-0.77,1.06-3.78,0.22-3.63,1.09 c0.33,1.93,2.51,3.59,4.93,5.24c1.11,0.76,0.56,1.85-0.4,2.17c-0.67,0.23-3.26,0.38-4.75,0.48c-0.64,0.04-0.98,0.63-0.51,1.39 c0.64,1.06,2.77,2.42,6.65,3.11c0.73,0.13,0.86,1.45-0.47,2.01c-1.92,0.81-2.73,0.86-4.89,1.12c-1.55,0.03-1.31,1.06-0.42,1.87 c1.84,1.67,5.56,2.27,7.59,2.9c1.31,0.41,0.44,1.92-2.39,2.27c-1.34,0.17-2.54,0.06-4.64,0c-1.33-0.03-1.47,1.03-0.38,2.06 c1.14,1.09,3.17,2.34,6.21,3.46c-9.03-1.74-18.6-5.3-28.27-11.08c-14.37-8.6-29.9-24.32-32.57-42.4 c-1.26-8.56,2.51-16.03,2.51-16.03c-0.47,0.39-6.26,5.48-5.05,17.51c0.62,6.15,4.65,26.4,33.48,43.64 c16.25,9.72,31.65,13.9,44.57,13.54c27.53-0.77,33.62-16.54,33.62-16.54c1.75-5.24,1.07-9.22-2.03-13.99 C112.73,69.32,104.75,65.37,98.06,61.43z" fill="#E6A467"/>
      <path d="M69.47,51.45c-0.96-0.69-1.24-1.76-1.38-2.41c-0.14-0.65,0.32-1.52,1.51-0.84 c1.41,0.8,2.27,1.42,4.38,1.89c1.12,0.25,0.78,1.85-0.95,2.13C71.96,52.39,70.74,52.37,69.47,51.45z" fill="#E6A467"/>
      <path d="M58.36,75.49c-1.13-0.71-1.64-1.63-1.78-2.59c-0.11-0.8,0.5-1.3,1.27-0.86 c1.7,0.96,4.22,2.36,4.22,2.36c0.76,0.3,1.16,1.54-0.17,1.78C60.78,76.39,59.51,76.22,58.36,75.49z" fill="#E6A467"/>
      <path d="M56.11,83.71c-1.22-0.66-1.82-1.59-2.02-2.58c-0.17-0.83,0.6-1.43,1.37-0.89 c1.06,0.75,2,1.22,4.63,1.95c0.83,0.23,1.12,1.66-0.25,2C58.69,84.48,57.35,84.39,56.11,83.71z" fill="#E6A467"/>
      <path d="M57.8,91.95c-1.3-0.67-1.95-1.62-2.2-2.66c-0.2-0.87,0.89-0.78,1.53-0.47c0,0,2.09,0.76,4.49,1.47 c0.87,0.26,1.25,1.64-0.19,2.04C60.23,92.68,59.13,92.63,57.8,91.95z" fill="#E6A467"/>
      <path d="M73.29,97.47c-1.37-0.94-0.12-1.61,0.59-1.54c2.65,0.27,3.07,0.02,5.56-0.31 c1.03-0.14,1.54,1.08,0.43,1.95C78.79,98.41,75.73,99.14,73.29,97.47z" fill="#FADA80"/>
      <path d="M75.32,90.69c-0.89-0.91,0.14-1.13,1.2-1.06c1.97,0.13,2.36-0.26,4.52-0.75 c0.88-0.2,1.53,1.05,0.45,2.08C80.2,92.17,77.06,92.47,75.32,90.69z" fill="#FADA80"/>
      <path d="M70.42,41.84c-0.13-0.98,0.52-1.5,1.29-0.95c1.25,0.91,3.93,2.03,3.93,2.03 c0.91,0.34,1.08,1.38-0.35,1.97S70.84,44.97,70.42,41.84z" fill="#E6A467"/>
      <path d="M88.78,44.02c-2.25,0.22-3.28-0.87-3.7-1.6c-0.42-0.72,0.2-0.94,0.84-0.85 c2.4,0.32,3.55-0.19,4.31-0.18c0.48,0.01,0.71,0.64,0.7,1.11C90.92,43.23,90.54,43.85,88.78,44.02z" fill="#FADA80"/>
      <path d="M90.36,51.8c-1.55,0.08-2.65-0.58-3.21-1.46c-0.63-0.98,0.02-1.29,0.66-1.22 c1.87,0.19,2.8,0.06,4.99-0.49c0.91-0.23,0.86,0.96,0.58,1.57C93.13,50.75,92.49,51.69,90.36,51.8z" fill="#FADA80"/>
      <path d="M88.03,59.48c-1.55-0.11-2.8-0.87-3.27-1.8c-0.37-0.74,0.16-1.11,1.23-0.88 c1.84,0.38,3.14,0.26,5.36-0.2c0.79-0.16,0.84,0.9,0.16,1.73C90.84,59.16,90.05,59.63,88.03,59.48z" fill="#FADA80"/>
      <path d="M75.53,33.83c1.58,0.84,2.21,1.01,2.88,1.26s0.63,1.37,0.14,1.75c-0.62,0.47-1.77,0.57-2.78,0.13 c-1.51-0.66-1.98-1.95-2.06-2.43C73.64,34.06,73.95,32.99,75.53,33.83z" fill="#E6A467"/>
    </g>
    <g>
      <path d="M97.53,64.2c0,0-1.19,2.58-9.36,2.29c-3.9-0.14-13.47-2.05-23.65-7.89 c-10.17-5.84-16.56-10.71-19.83-16.76c-2.18-4.02-1.4-6.56-1.4-6.56s-3.51,2.23-4.59,3.64c-2.24,2.92-2.06,8.11,0.29,12.74 c3.32,6.54,9.49,12.05,19.67,17.89c10.18,5.84,16.11,6.37,21.94,7.07c5.15,0.62,11.99-0.87,14.58-5.27 C96.44,69.2,97.53,64.2,97.53,64.2z" fill="#8954FF"/>
      <path d="M84.96,81.28c-0.14,14.46,3.17,29.7,4.88,34.74c0.21,0.63,1.08,0.66,1.36,0.06l3.39-5.9 c0.18-0.41,0.69-0.56,1.07-0.31l5.86,4.91c0.55,0.37,1.27-0.14,1.11-0.78l-6.65-34.33c6.85,12.14,17.4,21.9,20.93,23.95 c0.61,0.35,1.36-0.11,1.32-0.81l-1.07-5.78c-0.03-0.48,0.33-0.89,0.81-0.93l5.22-0.39c0.78-0.06,1.1-1.02,0.52-1.54L97.53,71.19 L84.96,81.28z" fill="#8954FF"/>
      <path d="M76.77,64.08c-3.59-1.19-7.65-2.89-11.82-5.24c-4.09,7.31-1.99,12.82-1.88,13.04 c3.88,1.87,7.09,2.92,9.95,3.57C74.07,72.33,75.91,66.73,76.77,64.08z" fill="#4B0DD4"/>
      <path d="M84.97,83.89c0,0,0.13,6.48,0.56,9.38c0,0,8.85-5.78,10.45-13.6c0,0,7.07,4.68,15.05,3.28 l-6.23-5.54l-5.91-2.78l-5.98,1.19L84.97,83.89z" fill="#4B0DD4"/>
      <path d="M84.06,60.48c-3.68-2.85-13.71-6.46-15.19-0.14c-1.77,7.53-0.32,15.42,3.74,23.76 c1.63,3.35,3.56,3.47,6.02,3.23c8.45-0.83,14.06-10.51,14.06-10.51s4.17-0.74,5.56-1.74c5.43,2.72,17.12,8.06,17.55-1.03 c0.32-6.79-4.01-25.54-13.72-24.59c-4.18,0.41-6.49,9.97-8.8,14.15c-1.37,0.27-3.12,0.99-3.12,0.99S85.81,61.51,84.06,60.48z" fill="#8954FF"/>
      <path d="M94.39,64.01c0,0,5.49-10.66,7.05-11.96c1.71-1.43,3.84-0.15,2.74,2.23 c-1.11,2.39-9.13,11.59-9.13,11.59L94.39,64.01z" fill="#4B0DD4"/>
      <path d="M91,65.99c0,0-11.95-7.09-15.23-7.91c-1.99-0.5-4.27,0.24-2.57,2.35 c1.7,2.11,17.98,6.87,17.98,6.87L91,65.99z" fill="#4B0DD4"/>
      <path d="M92.65,76.38c0.12-1.58,0.15-6.68-2.48-9.7c-1.01-1.16-0.25-2.49,1.3-2.92 c2.92-0.81,4.2-0.53,5.21,0.63c4.79,5.5,2.19,10.23,2.1,10.47C98.39,76.03,92.51,78.33,92.65,76.38z" fill="#B391FF"/>
      <path d="M77.83,70.04c0.17,2.49,1.02,5.09,1.9,7.43c0.9,2.23,2.53,4.97,0.9,7.12 c-0.78,1-2.8,1.61-3.89,0.95c-2.86-1.74-6.1-13.11-5.98-19.15c0.05-2.66,1.6-3.82,4.15-2.8C78.14,64.89,77.55,66.02,77.83,70.04z" fill="#B391FF"/>
    </g>
  </g>
</svg>

<svg viewBox="0 0 128 128" xmlns="http://www.w3.org/2000/svg">
  <defs/>
  <path d="M98.06,61.43 C100.55,47.5 95.94,34.68 82.33,27.4 C68.83,20.18 55.67,23.44 45.51,33.04 C37.59,29.13 30.92,26.62 24.69,26.31 C18.33,26 14.93,26.27 10.53,30.53 C2.16,38.63 6.98,68.29 40.47,88.32 C74.97,108.96 107.39,102.68 116.68,88.32 C122.79,78.88 113.79,70.7 98.06,61.43 Z" fill="#FADA80"/>
  <path d="M98.06,61.43 C100.53,47.65 96.02,34.95 82.73,27.63 C83.78,28.76 84.99,30.46 83.99,31.26 C82.75,32.25 82.01,31.73 79.96,31.66 C79.23,31.64 79.06,32.24 79.5,33.24 C79.92,34.17 81.24,35.6 84.42,37.18 C85.76,37.84 85.66,39.03 84.14,39.37 C81.78,39.89 80.5,39.86 79.04,39.75 C77.54,39.65 77.59,41.07 78.4,41.89 C79.15,42.67 80.62,44.3 84.15,45.23 C85.17,45.5 84.89,46.87 82.79,47.26 C80.85,47.62 78.58,47.43 77.56,47.44 C76.54,47.46 76.69,48.28 77.06,48.84 C78.52,51.01 80.14,51.53 82.69,52.62 C83.42,52.93 83.21,53.99 81.31,54.65 C79.83,55.17 78.19,55.39 76.03,55.18 C72.59,54.85 69.6,57.04 71.12,60.7 L66.65,70.2 C65.88,71.26 62.87,70.42 63.02,71.29 C63.35,73.22 65.53,74.88 67.95,76.53 C69.06,77.29 68.51,78.38 67.55,78.7 C66.88,78.93 64.29,79.08 62.8,79.18 C62.16,79.22 61.82,79.81 62.29,80.57 C62.93,81.63 65.06,82.99 68.94,83.68 C69.67,83.81 69.8,85.13 68.47,85.69 C66.55,86.5 65.74,86.55 63.58,86.81 C62.03,86.84 62.27,87.87 63.16,88.68 C65,90.35 68.72,90.95 70.75,91.58 C72.06,91.99 71.19,93.5 68.36,93.85 C67.02,94.02 65.82,93.91 63.72,93.85 C62.39,93.82 62.25,94.88 63.34,95.91 C64.48,97 66.51,98.25 69.55,99.37 C60.52,97.63 50.95,94.07 41.28,88.29 C26.91,79.69 11.38,63.97 8.71,45.89 C7.45,37.33 11.22,29.86 11.22,29.86 C10.75,30.25 4.96,35.34 6.17,47.37 C6.79,53.52 10.82,73.77 39.65,91.01 C55.9,100.73 71.3,104.91 84.22,104.55 C111.75,103.78 117.84,88.01 117.84,88.01 C119.59,82.77 118.91,78.79 115.81,74.02 C112.73,69.32 104.75,65.37 98.06,61.43 Z" fill="#E6A467"/>
  <path d="M69.47,51.45 C68.51,50.76 68.23,49.69 68.09,49.04 C67.95,48.39 68.41,47.52 69.6,48.2 C71.01,49 71.87,49.62 73.98,50.09 C75.1,50.34 74.76,51.94 73.03,52.22 C71.96,52.39 70.74,52.37 69.47,51.45 Z" fill="#E6A467"/>
  <path d="M58.36,75.49 C57.23,74.78 56.72,73.86 56.58,72.9 C56.47,72.1 57.08,71.6 57.85,72.04 C59.55,73 62.07,74.4 62.07,74.4 C62.83,74.7 63.23,75.94 61.9,76.18 C60.78,76.39 59.51,76.22 58.36,75.49 Z" fill="#E6A467"/>
  <path d="M56.11,83.71 C54.89,83.05 54.29,82.12 54.09,81.13 C53.92,80.3 54.69,79.7 55.46,80.24 C56.52,80.99 57.46,81.46 60.09,82.19 C60.92,82.42 61.21,83.85 59.84,84.19 C58.69,84.48 57.35,84.39 56.11,83.71 Z" fill="#E6A467"/>
  <path d="M57.8,91.95 C56.5,91.28 55.85,90.33 55.6,89.29 C55.4,88.42 56.49,88.51 57.13,88.82 C57.13,88.82 59.22,89.58 61.62,90.29 C62.49,90.55 62.87,91.93 61.43,92.33 C60.23,92.68 59.13,92.63 57.8,91.95 Z" fill="#E6A467"/>
  <path d="M73.29,97.47 C71.92,96.53 73.17,95.86 73.88,95.93 C76.53,96.2 76.95,95.95 79.44,95.62 C80.47,95.48 80.98,96.7 79.87,97.57 C78.79,98.41 75.73,99.14 73.29,97.47 Z" fill="#FADA80"/>
  <path d="M75.32,90.69 C74.43,89.78 75.46,89.56 76.52,89.63 C78.49,89.76 78.88,89.37 81.04,88.88 C81.92,88.68 82.57,89.93 81.49,90.96 C80.2,92.17 77.06,92.47 75.32,90.69 Z" fill="#FADA80"/>
  <path d="M70.42,41.84 C70.29,40.86 70.94,40.34 71.71,40.89 C72.96,41.8 75.64,42.92 75.64,42.92 C76.55,43.26 76.72,44.3 75.29,44.89 C73.86,45.48 70.84,44.97 70.42,41.84 Z" fill="#E6A467"/>
  <path d="M88.78,44.02 C86.53,44.24 85.5,43.15 85.08,42.42 C84.66,41.7 85.28,41.48 85.92,41.57 C88.32,41.89 89.47,41.38 90.23,41.39 C90.71,41.4 90.94,42.03 90.93,42.5 C90.92,43.23 90.54,43.85 88.78,44.02 Z" fill="#FADA80"/>
  <path d="M90.36,51.8 C88.81,51.88 87.71,51.22 87.15,50.34 C86.52,49.36 87.17,49.05 87.81,49.12 C89.68,49.31 90.61,49.18 92.8,48.63 C93.71,48.4 93.66,49.59 93.38,50.2 C93.13,50.75 92.49,51.69 90.36,51.8 Z" fill="#FADA80"/>
  <path d="M88.03,59.48 C86.48,59.37 85.23,58.61 84.76,57.68 C84.39,56.94 84.92,56.57 85.99,56.8 C87.83,57.18 89.13,57.06 91.35,56.6 C92.14,56.44 92.19,57.5 91.51,58.33 C90.84,59.16 90.05,59.63 88.03,59.48 Z" fill="#FADA80"/>
  <path d="M75.53,33.83 C77.11,34.67 77.74,34.84 78.41,35.09 C79.08,35.34 79.04,36.46 78.55,36.84 C77.93,37.31 76.78,37.41 75.77,36.97 C74.26,36.31 73.79,35.02 73.71,34.54 C73.64,34.06 73.95,32.99 75.53,33.83 Z" fill="#E6A467"/>
  <path d="M97.53,64.2 C97.53,64.2 96.34,66.78 88.17,66.49 C84.27,66.35 74.7,64.44 64.52,58.6 C54.35,52.76 47.96,47.89 44.69,41.84 C42.51,37.82 43.29,35.28 43.29,35.28 C43.29,35.28 39.78,37.51 38.7,38.92 C36.46,41.84 36.64,47.03 38.99,51.66 C42.31,58.2 48.48,63.71 58.66,69.55 C68.84,75.39 74.77,75.92 80.6,76.62 C85.75,77.24 92.59,75.75 95.18,71.35 C96.44,69.2 97.53,64.2 97.53,64.2 Z" fill="#8954FF"/>
  <path d="M84.96,81.28 C84.82,95.74 88.13,110.98 89.84,116.02 C90.05,116.65 90.92,116.68 91.2,116.08 L94.59,110.18 C94.77,109.77 95.28,109.62 95.66,109.87 L101.52,114.78 C102.07,115.15 102.79,114.64 102.63,114 L95.98,79.67 C102.83,91.81 113.38,101.57 116.91,103.62 C117.52,103.97 118.27,103.51 118.23,102.81 L117.16,97.03 C117.13,96.55 117.49,96.14 117.97,96.1 L123.19,95.71 C123.97,95.65 124.29,94.69 123.71,94.17 L97.53,71.19 L84.96,81.28 Z" fill="#8954FF"/>
  <path d="M76.77,64.08 C73.18,62.89 69.12,61.19 64.95,58.84 C60.86,66.15 62.96,71.66 63.07,71.88 C66.95,73.75 70.16,74.8 73.02,75.45 C74.07,72.33 75.91,66.73 76.77,64.08 Z" fill="#4B0DD4"/>
  <path d="M84.97,83.89 C84.97,83.89 85.1,90.37 85.53,93.27 C85.53,93.27 94.38,87.49 95.98,79.67 C95.98,79.67 103.05,84.35 111.03,82.95 L104.8,77.41 L98.89,74.63 L92.91,75.82 L84.97,83.89 Z" fill="#4B0DD4"/>
  <path d="M84.06,60.48 C80.38,57.63 70.35,54.02 68.87,60.34 C67.1,67.87 68.55,75.76 72.61,84.1 C74.24,87.45 76.17,87.57 78.63,87.33 C87.08,86.5 92.69,76.82 92.69,76.82 C92.69,76.82 96.86,76.08 98.25,75.08 C103.68,77.8 115.37,83.14 115.8,74.05 C116.12,67.26 111.79,48.51 102.08,49.46 C97.9,49.87 95.59,59.43 93.28,63.61 C91.91,63.88 90.16,64.6 90.16,64.6 C90.16,64.6 85.81,61.51 84.06,60.48 Z" fill="#8954FF"/>
  <path d="M94.39,64.01 C94.39,64.01 99.88,53.35 101.44,52.05 C103.15,50.62 105.28,51.9 104.18,54.28 C103.07,56.67 95.05,65.87 95.05,65.87 L94.39,64.01 Z" fill="#4B0DD4"/>
  <path d="M91,65.99 C91,65.99 79.05,58.9 75.77,58.08 C73.78,57.58 71.5,58.32 73.2,60.43 C74.9,62.54 91.18,67.3 91.18,67.3 L91,65.99 Z" fill="#4B0DD4"/>
  <path d="M92.65,76.38 C92.77,74.8 92.8,69.7 90.17,66.68 C89.16,65.52 89.92,64.19 91.47,63.76 C94.39,62.95 95.67,63.23 96.68,64.39 C101.47,69.89 98.87,74.62 98.78,74.86 C98.39,76.03 92.51,78.33 92.65,76.38 Z" fill="#B391FF"/>
  <path d="M77.83,70.04 C78,72.53 78.85,75.13 79.73,77.47 C80.63,79.7 82.26,82.44 80.63,84.59 C79.85,85.59 77.83,86.2 76.74,85.54 C73.88,83.8 70.64,72.43 70.76,66.39 C70.81,63.73 72.36,62.57 74.91,63.59 C78.14,64.89 77.55,66.02 77.83,70.04 Z" fill="#B391FF"/>
</svg>
